public/img/blogger.svg

<svg fill="none" height="24" viewBox="0 0 24 24" width="24" xmlns="http://www.w3.org/2000/svg" xmlns:xlink="http://www.w3.org/1999/xlink"><radialGradient id="a" cx="2.05188" cy="2" gradientUnits="userSpaceOnUse" r="28.1175"><stop offset="0" stop-color="#f59839"/><stop offset="1" stop-color="#f38936"/></radialGradient><radialGradient id="b" cx="2.04187" cy="2.02063" gradientUnits="userSpaceOnUse" r="28.2244"><stop offset="0" stop-color="#fff" stop-opacity=".1"/><stop offset="1" stop-color="#fff" stop-opacity="0"/></radialGradient><clipPath id="c"><path d="m2 2h20v20h-20z"/></clipPath><g clip-path="url(#c)"><path d="m22 20.3125c0 .9375-.75 1.6875-1.6875 1.6875h-16.625c-.9375 0-1.6875-.75-1.6875-1.6875v-16.625c0-.9375.75-1.6875 1.6875-1.6875h16.6875c.875 0 1.625.75 1.625 1.6875z" fill="url(#a)"/><path d="m17.8125 10.3125h-.8125c-.4375 0-.8125-.375-.8125-.8125 0-2.3125-1.875-4.1875-4.1875-4.1875h-2.5c-2.3125 0-4.1875 1.875-4.1875 4.1875v5c0 2.3125 1.875 4.1875 4.1875 4.1875h5c2.3125 0 4.1875-1.875 4.1875-4.1875v-3.3125c0-.5-.375-.875-.875-.875zm-8.375-1.625h3c.4375 0 .8125.375.8125.8125s-.375.8125-.8125.8125h-3c-.4375 0-.8125-.375-.8125-.8125s.375-.8125.8125-.8125zm5.125 6.625h-5.0625c-.4375 0-.8125-.375-.8125-.8125s.375-.8125.8125-.8125h5.0625c.4375 0 .8125.375.8125.8125s-.375.8125-.8125.8125z" fill="#fff"/><path d="m22 20.3125c0 .9375-.75 1.6875-1.6875 1.6875h-16.625c-.9375 0-1.6875-.75-1.6875-1.6875v-16.625c0-.9375.75-1.6875 1.6875-1.6875h16.6875c.875 0 1.625.75 1.625 1.6875z" fill="url(#b)"/></g></svg>

<svg width="24" height="24" viewBox="0 0 24 24" fill="none" xmlns="http://www.w3.org/2000/svg">
<g clip-path="url(#clip0_4_60)">
<path d="M22 20.3125C22 21.25 21.25 22 20.3125 22H3.6875C2.75 22 2 21.25 2 20.3125V3.6875C2 2.75 2.75 2 3.6875 2H20.375C21.25 2 22 2.75 22 3.6875V20.3125Z" fill="url(#paint0_radial_4_60)"/>
<path d="M17.8125 10.3125H17C16.5625 10.3125 16.1875 9.9375 16.1875 9.5C16.1875 7.1875 14.3125 5.3125 12 5.3125H9.5C7.1875 5.3125 5.3125 7.1875 5.3125 9.5V14.5C5.3125 16.8125 7.1875 18.6875 9.5 18.6875H14.5C16.8125 18.6875 18.6875 16.8125 18.6875 14.5V11.1875C18.6875 10.6875 18.3125 10.3125 17.8125 10.3125ZM9.4375 8.6875H12.4375C12.875 8.6875 13.25 9.0625 13.25 9.5C13.25 9.9375 12.875 10.3125 12.4375 10.3125H9.4375C9 10.3125 8.625 9.9375 8.625 9.5C8.625 9.0625 9 8.6875 9.4375 8.6875ZM14.5625 15.3125H9.5C9.0625 15.3125 8.6875 14.9375 8.6875 14.5C8.6875 14.0625 9.0625 13.6875 9.5 13.6875H14.5625C15 13.6875 15.375 14.0625 15.375 14.5C15.375 14.9375 15 15.3125 14.5625 15.3125Z" fill="white"/>
<path d="M22 20.3125C22 21.25 21.25 22 20.3125 22H3.6875C2.75 22 2 21.25 2 20.3125V3.6875C2 2.75 2.75 2 3.6875 2H20.375C21.25 2 22 2.75 22 3.6875V20.3125Z" fill="url(#paint1_radial_4_60)"/>
</g>
<defs>
<radialGradient id="paint0_radial_4_60" cx="0" cy="0" r="1" gradientUnits="userSpaceOnUse" gradientTransform="translate(2.05188 2) scale(28.1175)">
<stop stop-color="#F59839"/>
<stop offset="1" stop-color="#F38936"/>
</radialGradient>
<radialGradient id="paint1_radial_4_60" cx="0" cy="0" r="1" gradientUnits="userSpaceOnUse" gradientTransform="translate(2.04187 2.02063) scale(28.2244)">
<stop stop-color="white" stop-opacity="0.1"/>
<stop offset="1" stop-color="white" stop-opacity="0"/>
</radialGradient>
<clipPath id="clip0_4_60">
<rect width="20" height="20" fill="white" transform="translate(2 2)"/>
</clipPath>
</defs>
</svg>
